flaticon/hand-gestures/hand-gesture.svg

<svg xmlns="http://www.w3.org/2000/svg" width="32" height="32" viewBox="0 0 24 24">
    <path d="M 20.9375 8.71875 C 20.660156 8.320312 20.257812 8.039062 19.777344 7.960938 C 19.378906 7.878906 19.019531 7.921875 18.699219 8.078125 C 18.699219 7.679688 18.578125 7.320312 18.378906 7 C 18.097656 6.601562 17.699219 6.320312 17.21875 6.238281 C 16.898438 6.160156 16.539062 6.199219 16.21875 6.320312 L 17.097656 2.121094 C 17.179688 1.761719 17.136719 1.398438 17.019531 1.078125 C 16.699219 0.441406 16.058594 0 15.339844 0 C 14.097656 0 13.699219 0.960938 13.539062 1.71875 L 11.976562 9.238281 L 10.738281 3.320312 C 10.457031 2.078125 9.9375 1.601562 8.9375 1.601562 C 8.339844 1.601562 7.777344 1.800781 7.457031 2.160156 C 7.257812 2.398438 7.058594 2.800781 7.136719 3.441406 L 8.5 11.039062 C 7.617188 10.160156 6.457031 9.199219 5.5 8.679688 C 4.699219 8.238281 3.5 8.519531 2.976562 9.28125 C 2.816406 9.519531 2.339844 10.441406 3.578125 11.441406 C 6.136719 13.558594 6.339844 16 6.339844 16.039062 C 6.777344 19.121094 8.578125 20.601562 9.179688 21 L 9.179688 22.398438 C 9.179688 23.28125 9.859375 24 10.738281 24 L 17.9375 24 C 18.816406 24 19.578125 23.28125 19.578125 22.398438 L 19.578125 20.960938 C 20.777344 19.320312 20.777344 19.121094 20.777344 16 L 20.777344 12.199219 L 21.21875 10.078125 C 21.296875 9.601562 21.21875 9.121094 20.9375 8.71875 Z M 19.539062 14.238281 C 19.457031 14.800781 18.9375 15.160156 18.378906 15.039062 C 18.097656 14.960938 17.898438 14.839844 17.738281 14.601562 C 17.578125 14.359375 17.539062 14.121094 17.578125 13.839844 L 18.378906 9.71875 C 18.457031 9.441406 18.578125 9.238281 18.816406 9.078125 C 18.976562 8.960938 19.179688 8.921875 19.378906 8.921875 C 19.457031 8.921875 19.5 8.921875 19.539062 8.960938 C 19.980469 9.023438 20.296875 9.359375 20.351562 9.773438 C 20.351562 9.835938 20.347656 9.894531 20.339844 9.960938 L 20.148438 11.089844 Z M 15.859375 8 C 15.9375 7.71875 16.058594 7.519531 16.296875 7.359375 C 16.457031 7.238281 16.660156 7.199219 16.859375 7.199219 C 16.9375 7.199219 16.976562 7.199219 17.058594 7.238281 C 17.40625 7.289062 17.679688 7.511719 17.804688 7.804688 C 17.839844 7.941406 17.839844 8.085938 17.816406 8.238281 L 17.578125 9.398438 C 17.570312 9.453125 17.570312 9.503906 17.578125 9.550781 C 17.578125 9.554688 17.578125 9.558594 17.578125 9.558594 L 16.777344 13.679688 C 16.699219 14.238281 16.179688 14.601562 15.617188 14.480469 C 15.339844 14.398438 15.136719 14.28125 14.976562 14.039062 C 14.816406 13.800781 14.777344 13.558594 14.816406 13.28125 Z M 19 20.398438 L 18.378906 20.398438 C 18.136719 20.398438 17.976562 20.558594 17.976562 20.800781 C 17.976562 21.039062 18.136719 21.199219 18.378906 21.199219 L 18.777344 21.199219 L 18.777344 22.441406 C 18.777344 22.878906 18.378906 23.238281 17.9375 23.238281 L 10.738281 23.238281 C 10.296875 23.238281 9.976562 22.878906 9.976562 22.441406 L 9.976562 21.199219 L 10.777344 21.199219 C 11.019531 21.199219 11.179688 21.039062 11.179688 20.800781 C 11.179688 20.558594 11.019531 20.398438 10.777344 20.398438 L 9.660156 20.398438 C 9.203125 20.085938 7.554688 18.808594 7.136719 16 C 7.136719 15.878906 6.9375 13.199219 4.097656 10.839844 C 3.738281 10.519531 3.378906 10.121094 3.617188 9.800781 C 3.898438 9.398438 4.660156 9.199219 5.097656 9.441406 C 6.378906 10.121094 8.058594 11.679688 8.816406 12.679688 C 8.820312 12.683594 8.824219 12.6875 8.824219 12.6875 C 9.011719 13.324219 9.402344 14.386719 10.058594 15.078125 C 10.136719 15.160156 10.21875 15.199219 10.339844 15.199219 C 10.417969 15.199219 10.539062 15.160156 10.660156 15.121094 C 10.816406 14.960938 10.816406 14.71875 10.660156 14.558594 C 10.179688 14.078125 9.777344 13.28125 9.539062 12.320312 C 9.535156 12.300781 9.527344 12.285156 9.523438 12.265625 L 7.9375 3.359375 C 7.898438 3.078125 7.976562 2.878906 8.097656 2.71875 C 8.257812 2.519531 8.578125 2.398438 8.9375 2.398438 C 9.417969 2.398438 9.738281 2.480469 9.9375 3.480469 L 11.578125 11.28125 C 11.617188 11.480469 11.777344 11.601562 11.976562 11.601562 C 12.179688 11.601562 12.339844 11.480469 12.378906 11.28125 L 14.339844 1.878906 C 14.539062 0.960938 14.859375 0.800781 15.339844 0.800781 C 15.738281 0.800781 16.097656 1.039062 16.21875 1.398438 C 16.296875 1.601562 16.296875 1.839844 16.257812 2 L 15.136719 7.519531 C 15.136719 7.53125 15.136719 7.539062 15.132812 7.550781 C 15.101562 7.644531 15.074219 7.738281 15.058594 7.839844 L 14.019531 13.121094 C 13.9375 13.601562 14.019531 14.078125 14.296875 14.480469 C 14.578125 14.878906 14.976562 15.160156 15.457031 15.238281 C 15.578125 15.28125 15.699219 15.28125 15.816406 15.28125 C 16.242188 15.28125 16.644531 15.136719 16.960938 14.882812 C 16.988281 14.9375 17.023438 14.988281 17.058594 15.039062 C 17.339844 15.441406 17.738281 15.71875 18.21875 15.800781 C 18.339844 15.839844 18.457031 15.839844 18.578125 15.839844 C 19.132812 15.839844 19.65625 15.578125 19.976562 15.144531 L 19.976562 16 C 19.976562 18.902344 19.976562 19.035156 19 20.398438 Z M 19 20.398438"/>
</svg>

<svg xmlns="http://www.w3.org/2000/svg" width="32" height="32" viewBox="0 0 24 24">
    <path d="M20.938 8.719c-.278-.399-.68-.68-1.16-.758a1.642 1.642 0 0 0-1.079.117c0-.398-.12-.758-.32-1.078-.281-.398-.68-.68-1.16-.762-.32-.078-.68-.039-1 .082l.879-4.199c.082-.36.039-.723-.078-1.043C16.7.441 16.059 0 15.34 0c-1.242 0-1.64.96-1.8 1.719l-1.563 7.52-1.239-5.919c-.281-1.242-.8-1.718-1.8-1.718-.598 0-1.16.199-1.481.558-.2.238-.398.64-.32 1.281L8.5 11.04c-.883-.879-2.043-1.84-3-2.36-.8-.44-2-.16-2.523.602-.16.239-.637 1.16.601 2.16C6.137 13.56 6.34 16 6.34 16.04c.437 3.082 2.238 4.563 2.84 4.961v1.398c0 .883.68 1.602 1.558 1.602h7.2c.878 0 1.64-.719 1.64-1.602v-1.437c1.2-1.64 1.2-1.84 1.2-4.961v-3.8l.44-2.122c.079-.476 0-.957-.28-1.36zm-1.399 5.52a.951.951 0 0 1-1.16.8c-.281-.078-.48-.2-.64-.437-.16-.243-.2-.48-.16-.762l.8-4.121c.078-.278.2-.48.437-.64.16-.118.364-.157.563-.157.078 0 .121 0 .16.039a.94.94 0 0 1 .813.812c0 .063-.004.122-.012.188l-.192 1.129zM15.86 8c.079-.281.2-.48.438-.64.16-.122.363-.16.562-.16.078 0 .118 0 .2.038.347.051.62.274.746.567.035.136.035.28.011.433l-.238 1.16a.497.497 0 0 0 0 .153v.008l-.8 4.12a.95.95 0 0 1-1.16.801c-.278-.082-.481-.199-.641-.44-.16-.24-.2-.481-.16-.759zM19 20.398h-.621c-.242 0-.402.16-.402.403 0 .238.16.398.402.398h.398v1.242c0 .438-.398.797-.84.797h-7.199c-.441 0-.761-.36-.761-.797V21.2h.8c.243 0 .403-.16.403-.398 0-.242-.16-.403-.403-.403H9.66c-.457-.312-2.105-1.59-2.523-4.398 0-.121-.2-2.8-3.04-5.16-.359-.32-.718-.719-.48-1.04.281-.402 1.043-.6 1.48-.359 1.282.68 2.962 2.239 3.72 3.239l.007.008c.188.636.578 1.699 1.235 2.39.078.082.16.121.28.121.079 0 .2-.039.321-.078a.396.396 0 0 0 0-.562c-.48-.48-.883-1.278-1.12-2.239-.005-.02-.013-.035-.017-.054L7.938 3.359a.816.816 0 0 1 .16-.64c.16-.2.48-.32.84-.32.48 0 .8.081 1 1.081l1.64 7.801c.04.2.2.32.399.32a.39.39 0 0 0 .402-.32l1.96-9.402c.2-.918.52-1.078 1-1.078.4 0 .759.238.88.597.078.204.078.442.039.602l-1.121 5.52c0 .011 0 .02-.004.03a1.742 1.742 0 0 0-.074.29l-1.04 5.281c-.082.48 0 .957.278 1.36.281.398.68.68 1.16.757.121.043.242.043.36.043.425 0 .828-.144 1.144-.398.027.055.062.105.098.156.28.402.68.68 1.16.762.12.039.238.039.36.039.554 0 1.077-.262 1.398-.695V16c0 2.902 0 3.035-.977 4.398zm0 0"/>
</svg>
